X: 16736
T: Hard To Get Started
R: reel
M: 4/4
K: Edorian
E|:FD ~D2 AD ~D2|GEED EFGE|FD ~D2 AD ~D2|GFEF D2 DE|
FD ~D2 AD ~D2|GEED EFGE|FAdc dBAF|1 GFEF ~D3 E:|2 GFEF D2 EF||
|:~G3 E A3 F|GEED EFGE|FAdc ~d2 cd|Beed dcde|
~f3 d gefe|dcAF G2 FG|Addc dBAF|GFEF D2 DE:|

